evrofasad/img/icons/present.svg

<svg width="50" height="50" viewBox="0 0 50 50" fill="none" xmlns="http://www.w3.org/2000/svg">
<path d="M9.375 7.8125C9.375 5.7405 10.1981 3.75336 11.6632 2.28823C13.1284 0.8231 15.1155 0 17.1875 0C19.2595 0 21.2466 0.8231 22.7118 2.28823C24.1769 3.75336 25 5.7405 25 7.8125C25 5.7405 25.8231 3.75336 27.2882 2.28823C28.7534 0.8231 30.7405 0 32.8125 0C34.8845 0 36.8716 0.8231 38.3368 2.28823C39.8019 3.75336 40.625 5.7405 40.625 7.8125V7.83125C40.625 8.05 40.625 8.675 40.5062 9.375H46.875C47.7038 9.375 48.4987 9.70424 49.0847 10.2903C49.6708 10.8763 50 11.6712 50 12.5V15.625C50 16.4538 49.6708 17.2487 49.0847 17.8347C48.4987 18.4208 47.7038 18.75 46.875 18.75H3.125C2.2962 18.75 1.50134 18.4208 0.915291 17.8347C0.32924 17.2487 0 16.4538 0 15.625V12.5C0 11.6712 0.32924 10.8763 0.915291 10.2903C1.50134 9.70424 2.2962 9.375 3.125 9.375H9.49375C9.41121 8.86463 9.37149 8.34824 9.375 7.83125V7.8125ZM12.7125 9.375H21.875V7.8125C21.875 7.19693 21.7538 6.58739 21.5182 6.01867C21.2826 5.44996 20.9373 4.93321 20.5021 4.49794C20.0668 4.06266 19.55 3.71738 18.9813 3.48181C18.4126 3.24625 17.8031 3.125 17.1875 3.125C16.5719 3.125 15.9624 3.24625 15.3937 3.48181C14.825 3.71738 14.3082 4.06266 13.8729 4.49794C13.4377 4.93321 13.0924 5.44996 12.8568 6.01867C12.6212 6.58739 12.5 7.19693 12.5 7.8125C12.5 8.07812 12.5063 8.66875 12.6406 9.15625C12.6594 9.23077 12.6834 9.30387 12.7125 9.375ZM28.125 9.375H37.2875C37.3162 9.30374 37.3402 9.23067 37.3594 9.15625C37.4938 8.66875 37.5 8.07812 37.5 7.8125C37.5 6.5693 37.0061 5.37701 36.1271 4.49794C35.248 3.61886 34.0557 3.125 32.8125 3.125C31.5693 3.125 30.377 3.61886 29.4979 4.49794C28.6189 5.37701 28.125 6.5693 28.125 7.8125V9.375ZM46.875 21.875V45.3125C46.875 46.5557 46.3811 47.748 45.5021 48.6271C44.623 49.5061 43.4307 50 42.1875 50H28.125V21.875H46.875ZM7.8125 50C6.5693 50 5.37701 49.5061 4.49794 48.6271C3.61886 47.748 3.125 46.5557 3.125 45.3125V21.875H21.875V50H7.8125Z" fill="#2DB1E6"/>
</svg>

<svg width="50" height="50" fill="none" xmlns="http://www.w3.org/2000/svg"><path d="M9.375 7.813a7.813 7.813 0 0115.625 0 7.813 7.813 0 0115.625 0v.018c0 .219 0 .844-.119 1.544h6.369A3.125 3.125 0 0150 12.5v3.125a3.125 3.125 0 01-3.125 3.125H3.125A3.125 3.125 0 010 15.625V12.5a3.125 3.125 0 013.125-3.125h6.369a9.275 9.275 0 01-.119-1.544v-.019zm3.338 1.562h9.162V7.812a4.687 4.687 0 10-9.375 0c0 .266.006.857.14 1.344.02.075.043.148.072.219zm15.412 0h9.163c.028-.071.052-.144.071-.219.135-.487.141-1.078.141-1.344a4.688 4.688 0 00-9.375 0v1.563zm18.75 12.5v23.438A4.688 4.688 0 0142.187 50H28.126V21.875h18.75zM7.812 50a4.688 4.688 0 01-4.687-4.688V21.875h18.75V50H7.812z" fill="#2DB1E6"/></svg>
